X: 06076
T: PETER TEMPLE'S REEL
C: Bob McQuillen 7 Mar 82
B: Bob's Note Book 6 #76
%R: reel
Z: 2021 John Chambers <jc:trillian.mit.edu>
M: C
L: 1/8
K: G
GE \
| DEGB AGED | GBdg edBd | egdB AGBA | GBAG EDGE |\
| DEGB AGED |
| GBdg edBG | Bdeg egdB | AGED G2 :: DE \
| GAGE DEGB | dedB GBde |
| g2gb ageg | dgeg dBAB |\
| GAGE DEGB | dedB edBd | e2ga gede | dBAB G2 :|
%%begintext align
%% Here's one
%% for dance caller Peter Temple of Harrisville -
%% I hope you have fun calling a contra to this
%% one, Peter!
%%endtext

%%sep 1 1 500

%%sep 1 1 500

